src/app/skills/images/mobx.svg

<svg height="1130.9" viewBox="0 0 1130.8002 1130.9" width="1130.8" xmlns="http://www.w3.org/2000/svg" xmlns:xlink="http://www.w3.org/1999/xlink"><clipPath id="a"><path d="m1088.7 1165.5h-977.4c-42.4 0-76.7-34.4-76.7-76.7v-977.5c0-42.4 34.4-76.7 76.7-76.7h977.4c42.4 0 76.7 34.4 76.7 76.7v977.4c.1 42.4-34.3 76.8-76.7 76.8z" height="100%" width="100%"/></clipPath><linearGradient id="b" gradientUnits="userSpaceOnUse" x1="426.674" x2="1284.413" y1="482.499" y2="1239.984"><stop offset="0" stop-color="#f77122"/><stop offset="1" stop-color="#d6560a"/></linearGradient><linearGradient id="c" gradientUnits="userSpaceOnUse" x1="1128.991" x2="-496.291" y1="-135.804" y2="788.155"><stop offset="0" stop-color="#d6560a"/><stop offset="1" stop-color="#f77122"/></linearGradient><g transform="translate(-34.6 -34.6)"><g clip-path="url(#a)"><path d="m1866 495-1292.4 1401.7-661.5-610.1 1292.4-1401.6z" fill="url(#b)"/><path d="m1225.5-94-1292.4 1401.6-577.2-532.1 1292.5-1401.6z" fill="url(#c)"/><path d="m-143.7-143.6h785v1906.5h-785z" fill="#c24411" opacity=".28" transform="matrix(.96584899 -.25910563 .25910563 .96584899 -201.320508 92.131979)"/></g><g fill="#fff"><path d="m384.9 900.1h-139.5v-45.3h85.6v-509.6h-85.6v-45.3h139.5z"/><path d="m745.7 463c-16.1 60.4-35 118.2-56.7 173.6s-42.7 105-62.9 148.8h-52.1c-20.3-43.8-41.2-93.4-62.9-148.8s-40.6-113.2-56.7-173.6h62c5 20.3 10.8 41.9 17.7 64.8s14 45.7 21.7 68.2c7.6 22.5 15.4 44.3 23.2 65.4s15.3 39.9 22.3 56.4c7-16.5 14.5-35.3 22.3-56.4s15.6-42.9 23.2-65.4 14.9-45.3 21.7-68.2 12.7-44.5 17.7-64.8z"/><path d="m815.1 299.9h139.5v45.3h-85.6v509.6h85.6v45.3h-139.5z"/></g></g></svg>

<svg xmlns="http://www.w3.org/2000/svg" xmlns:xlink="http://www.w3.org/1999/xlink" id="Layer_1" viewBox="0 0 1130.8002 1130.9" width="1130.8" height="1130.9"><style id="style75">.st0{clip-path:url(#SVGID_2_)}.st1{fill:url(#SVGID_3_)}.st2{fill:url(#SVGID_4_)}.st3{opacity:.28;fill:#c24411}.st4{fill:#fff}</style><g id="g77" transform="translate(-34.6 -34.6)"><defs id="defs79"><path id="SVGID_1_" d="M1088.7 1165.5H111.3c-42.4 0-76.7-34.4-76.7-76.7V111.3c0-42.4 34.4-76.7 76.7-76.7h977.4c42.4 0 76.7 34.4 76.7 76.7v977.4c.1 42.4-34.3 76.8-76.7 76.8z"/></defs><clipPath id="SVGID_2_"><use xlink:href="#SVGID_1_" id="use83" width="100%" height="100%" overflow="visible"/></clipPath><g class="st0" id="g85" clip-path="url(#SVGID_2_)"><linearGradient id="SVGID_3_" gradientUnits="userSpaceOnUse" x1="426.674" y1="482.499" x2="1284.413" y2="1239.984"><stop offset="0" id="stop88" stop-color="#f77122"/><stop offset="1" id="stop90" stop-color="#d6560a"/></linearGradient><path class="st1" id="polygon92" fill="url(#SVGID_3_)" d="M1866 495L573.6 1896.7l-661.5-610.1L1204.5-115z"/><linearGradient id="SVGID_4_" gradientUnits="userSpaceOnUse" x1="1128.991" y1="-135.804" x2="-496.291" y2="788.155"><stop offset="0" id="stop95" stop-color="#d6560a"/><stop offset="1" id="stop97" stop-color="#f77122"/></linearGradient><path class="st2" id="polygon99" fill="url(#SVGID_4_)" d="M1225.5-94L-66.9 1307.6l-577.2-532.1L648.4-626.1z"/><path transform="rotate(-15.017 248.845 809.781)" class="st3" id="rect101" opacity=".28" fill="#c24411" d="M-143.7-143.6h785v1906.5h-785z"/></g></g><g id="g103" transform="translate(-34.6 -34.6)"><path class="st4" d="M384.9 900.1H245.4v-45.3H331V345.2h-85.6v-45.3h139.5v600.2z" id="path105" fill="#fff"/><path class="st4" d="M745.7 463c-16.1 60.4-35 118.2-56.7 173.6-21.7 55.4-42.7 105-62.9 148.8H574c-20.3-43.8-41.2-93.4-62.9-148.8-21.7-55.4-40.6-113.2-56.7-173.6h62c5 20.3 10.8 41.9 17.7 64.8 6.9 22.9 14 45.7 21.7 68.2 7.6 22.5 15.4 44.3 23.2 65.4 7.8 21.1 15.3 39.9 22.3 56.4 7-16.5 14.5-35.3 22.3-56.4 7.8-21.1 15.6-42.9 23.2-65.4 7.6-22.5 14.9-45.3 21.7-68.2 6.8-22.9 12.7-44.5 17.7-64.8h59.5z" id="path107" fill="#fff"/><path class="st4" d="M815.1 299.9h139.5v45.3H869v509.6h85.6v45.3H815.1V299.9z" id="path109" fill="#fff"/></g></svg>
